source/img/icon-fb-mobile.svg

<svg xmlns="http://www.w3.org/2000/svg" width="10" height="19" viewBox="0 0 10 19" enable-background="new 0 0 10 19"><path d="M7.1 19h-5.1v-8.8h-2v-4.4h1.9c-.1-2 .2-3.4 1.1-4.4.8-.9 2-1.3 3.5-1.4h3.5v4.2h-2.8c-.1.2-.2.8-.2 1.6h3v4.4h-2.9v8.8zm-4-1h2.8v-8.9h2.9v-2.3h-2.9v-.5c0-1.4 0-2.6.7-3.1l.1-.1h2.1v-2.1h-2.3c-1.2.1-2 .4-2.6 1-.8.8-1 2.3-.8 4.2l.1.6h-2.1v2.3h2v8.9z"/></svg>

<?xml version="1.0" encoding="utf-8"?>
<!-- Generator: Adobe Illustrator 21.0.0, SVG Export Plug-In . SVG Version: 6.00 Build 0) -->
<svg version="1.1" id="Layer_1" xmlns="http://www.w3.org/2000/svg" xmlns:xlink="http://www.w3.org/1999/xlink" x="0px" y="0px" viewBox="0 0 10 19" style="enable-background:new 0 0 10 19;" xml:space="preserve">
  <g>
    <path
      d="M7.1,19H2v-8.8H0V5.8h1.9c-0.1-2,0.2-3.4,1.1-4.4C3.8,0.5,5,0.1,6.5,0L10,0v4.2H7.2C7.1,4.4,7,5,7,5.8H10v4.4H7.1V19z
      M3.1,18h2.8V9.1h2.9V6.8H5.9l0-0.5c0-1.4,0-2.6,0.7-3.1l0.1-0.1h2.1V1H6.5c-1.2,0.1-2,0.4-2.6,1c-0.8,0.8-1,2.3-0.8,4.2l0.1,0.6
    H1.1v2.3h2V18z"/>
  </g>
</svg>
